X:216
T:Royal Irish Quadrilles No. 1. Le4.216, The
T:Black Joke,aka
M:6/8
L:1/8
Q:3/8=90
B:L.Leadley MS#4 c1850
Z:Village Music Project 2016 Steve Mansfield
K:C
G | Gcc cBc | d>ed dcB | ceg gfe | dfe dcB |
c>de A>Bc | G.cB cde | c>de A>Bc | GcB c2 H ||
gf | ece geg | afa g2 g/f/ | ece geg | afa g2e |
ceg gfe | dfe dcB | c>de A>Bc | GcB c2 ||
!coda! "flute" G | Gcc cBc | d>ed dcB | ceg gfe | dfe dcB |
c>de A>Bc | GcB cde | c>de A>Bc | GcB c2z ||
c2z f2z | d>ef c>BA | G=FG DGF | E>DE C2z |
c2z f2z | d>ef c>BA | G>=FG DG=F | E>DE F2 !D.C.! |]

